X: 11663
T: Eileen O'Keefe's
R: polka
M: 2/4
K: Amajor
f|ec BA/B/|cA FA|EF AB|cB Bf|
ec BA/B/|cA FA|EF AB|cA Af|
ec BA/B/|c/B/A FA|EF AB|cB Bc|
de/d/ dc|B2 A>F|EF AB|Ac ed||
ce a2|ec/e/ f2|ce fa/f/|ec BA|
ce a2|ec/e/ fa/f/|ec BA/B/|cA AB/=c/|
ce a2|ec/e/ f2|ce f/g/a/f/|ec BA|
a>g af|ec/e/ fa/f/|ec BA/B/|cA A||

